wp-content/themes/koolcat/assets/dist/svg/instagram.svg

<?xml version="1.0" encoding="UTF-8"?>
<svg viewBox="0 0 512.00096 512.00096" xmlns="http://www.w3.org/2000/svg"><path d="m373.40625 0h-234.8125c-76.421875 0-138.59375 62.171875-138.59375 138.59375v234.816406c0 76.417969 62.171875 138.589844 138.59375 138.589844h234.816406c76.417969 0 138.589844-62.171875 138.589844-138.589844v-234.816406c0-76.421875-62.171875-138.59375-138.59375-138.59375zm108.578125 373.410156c0 59.867188-48.707031 108.574219-108.578125 108.574219h-234.8125c-59.871094 0-108.578125-48.707031-108.578125-108.574219v-234.816406c0-59.871094 48.707031-108.578125 108.578125-108.578125h234.816406c59.867188 0 108.574219 48.707031 108.574219 108.578125zm0 0"/><path d="m256 116.003906c-77.195312 0-139.996094 62.800782-139.996094 139.996094s62.800782 139.996094 139.996094 139.996094 139.996094-62.800782 139.996094-139.996094-62.800782-139.996094-139.996094-139.996094zm0 249.976563c-60.640625 0-109.980469-49.335938-109.980469-109.980469 0-60.640625 49.339844-109.980469 109.980469-109.980469 60.644531 0 109.980469 49.339844 109.980469 109.980469 0 60.644531-49.335938 109.980469-109.980469 109.980469zm0 0"/><path d="m399.34375 66.285156c-22.8125 0-41.367188 18.558594-41.367188 41.367188 0 22.8125 18.554688 41.371094 41.367188 41.371094s41.371094-18.558594 41.371094-41.371094-18.558594-41.367188-41.371094-41.367188zm0 52.71875c-6.257812 0-11.351562-5.09375-11.351562-11.351562 0-6.261719 5.09375-11.351563 11.351562-11.351563 6.261719 0 11.355469 5.089844 11.355469 11.351563 0 6.257812-5.09375 11.351562-11.355469 11.351562zm0 0"/></svg>

<svg viewBox="0 0 512.001 512.001" xmlns="http://www.w3.org/2000/svg"><path d="M373.406 0H138.594C62.172 0 0 62.172 0 138.594V373.41C0 449.828 62.172 512 138.594 512H373.41C449.828 512 512 449.828 512 373.41V138.594C512 62.172 449.828 0 373.406 0zm108.578 373.41c0 59.867-48.707 108.574-108.578 108.574H138.594c-59.871 0-108.578-48.707-108.578-108.574V138.594c0-59.871 48.707-108.578 108.578-108.578H373.41c59.867 0 108.574 48.707 108.574 108.578zm0 0"/><path d="M256 116.004c-77.195 0-139.996 62.8-139.996 139.996S178.804 395.996 256 395.996 395.996 333.196 395.996 256 333.196 116.004 256 116.004zm0 249.976c-60.64 0-109.98-49.335-109.98-109.98 0-60.64 49.34-109.98 109.98-109.98 60.645 0 109.98 49.34 109.98 109.98 0 60.645-49.335 109.98-109.98 109.98zM399.344 66.285c-22.813 0-41.367 18.559-41.367 41.367 0 22.813 18.554 41.371 41.367 41.371s41.37-18.558 41.37-41.37-18.558-41.368-41.37-41.368zm0 52.719c-6.258 0-11.352-5.094-11.352-11.352 0-6.261 5.094-11.351 11.352-11.351 6.261 0 11.355 5.09 11.355 11.351 0 6.258-5.094 11.352-11.355 11.352zm0 0"/></svg>
